_project/icons/icon_monochrome.svg

<svg width="30" height="30" viewBox="0 0 30 30" xmlns="http://www.w3.org/2000/svg" shape-rendering="crispEdges">
	<g fill="white">
		<path
			d="M17 17v1h2v2h-1v2h1v1h2v1h1v3h-3v1h2v-2h2v-2h1v-3h1v-2h-1v1h-2v-4h-1v-1h1v-2h1v-1h2v7h1v-3h1V9h1V3h-4v1h-2V3h-2V2H2v25h1v1h6v-1H7v-1H5v-1H4v-1H3v-5h1v-1h1v-1h3v-1H7v-4h1v-2h1V9h3v1h1v1h1v2h1v2h1v2zM10 7H8v1H7v1H6V8H5V3h2v1h1v1h1v1h1zm-4 4v1H5v-1zm0 9h3v1H8v3h1v-1H7v-1H6zm4-6v3h1v2h1v-1h1v-5h-2v-1h1v3h-1v-1z"
			opacity=".7" />
		<path
			d="M2 2V1h26v1zm26 0h1v25h-1zm0 25h-1v1h1zm-1 1v1H3v-1zM3 28v-1H2v1zm-1-1H1V2h1z" />
		<path
			d="M2 2h1v1H2zm25 0h1v1h-1zM1 27h1v1H1zm1 1h1v1H2zm26-1h1v1h-1zm-1 1h1v1h-1z"
			opacity=".8" />
	</g>
</svg>

<?xml version="1.0"	encoding="UTF-8"	?>
<svg version="1.1"	width="100%" height="100%" viewBox="0 0 30 30" preserveAspectRatio="xMidYMid meet"	xmlns="http://www.w3.org/2000/svg" shape-rendering="crispEdges">

	<path d="M17 17v1h3V17h1V15h1V13h1V12h2v7H24v2H23v2H21v1h1v2H21v1H19v1h2V27h1V26h1V24h1V21h1V19h1V16h1V9h1V3H24V4H22V3H20V2H2V27H3v1H9V27H7V26H5V25H4V24H3V19H4V18H5V17H8V16H7V12H8V10H9V9h3v1h1v1h1v2h1v2h1v2ZM10 7H8V8H7V9H6V8H5V3H7V4H8V5H9V6h1ZM6 11v1H5v-1Z" fill="currentColor" opacity=".7"/>
	<path d="M6 20H9v1H8v3H9V23H7V22H6Z" fill="currentColor" opacity=".7"/>

	<path d="M10 14v3h1v2h1V18h1V13H11V12h1v3H11V14Z" fill="currentColor" opacity=".7"/>
	<path d="M19 18v2H18v2h1v1h4V21h1V20H22V16H21v1H20v1Z" fill="currentColor" opacity=".7"/>

	<!-- Border -->
	<path d="M 2 2 L 2 1 L 28 1 L 28 2 Z M 28 2 L 29 2 L 29 27 L 28 27 Z M 28 27 L 27 27 L 27 28 L 28 28 Z M 27 28 L 27 29 L 3 29 L 3 28 Z M 3 28 L 3 27 L 2 27 L 2 28 Z M 2 27 L 1 27 L 1 2 L 2 2 Z"	fill="currentColor"/>
	<rect x="2"		y="2"	width="1"	height="1" fill="currentColor" opacity=".72"/>
	<rect x="1"		y="27"	width="1"	height="1" fill="currentColor" opacity=".72"/>
	<rect x="2"		y="28"	width="1"	height="1" fill="currentColor" opacity=".72"/>
	<rect x="28"	y="27"	width="1"	height="1" fill="currentColor" opacity=".72"/>
	<rect x="27"	y="28"	width="1"	height="1" fill="currentColor" opacity=".72"/>
</svg>
